raw/hero/not-found.svg

<svg width="220" height="160" viewBox="0 0 220 160" fill="none" xmlns="http://www.w3.org/2000/svg">
<rect x="37" y="50" width="146" height="94" rx="12" fill="url(#paint0_linear_2539_132191)"/>
<mask id="mask0_2539_132191" style="mask-type:alpha" maskUnits="userSpaceOnUse" x="37" y="50" width="146" height="94">
<rect x="37" y="50" width="146" height="94" rx="12" fill="url(#paint1_linear_2539_132191)"/>
</mask>
<g mask="url(#mask0_2539_132191)">
<rect x="1" y="100" width="99" height="26" rx="6" fill="url(#paint2_linear_2539_132191)"/>
<path opacity="0.8" d="M166.497 28.2416C169.931 22.6396 178.069 22.6396 181.503 28.2416L203.788 64.6015C207.382 70.4651 203.162 78 196.285 78H151.715C144.838 78 140.618 70.4651 144.212 64.6015L166.497 28.2416Z" fill="url(#paint3_linear_2539_132191)"/>
<rect opacity="0.6" x="50" y="81.9999" width="51" height="34" fill="url(#paint4_linear_2539_132191)"/>
<path opacity="0.6" fill-rule="evenodd" clip-rule="evenodd" d="M170 81.9998H110V85.9998H170V81.9998ZM170 91.9998H110V95.9998H170V91.9998ZM110 102H170V106H110V102ZM147 112H110V116H147V112Z" fill="url(#paint5_linear_2539_132191)"/>
</g>
<line x1="37" y1="65.4999" x2="180" y2="65.4999" stroke="white"/>
<circle cx="47.7" cy="57.7001" r="1.7" fill="#757B94"/>
<circle cx="54.5008" cy="57.7001" r="1.7" fill="#757B94"/>
<circle cx="61.2996" cy="57.7001" r="1.7" fill="#757B94"/>
<rect x="50" y="72.9999" width="32" height="4" rx="2" fill="#0066FF"/>
<rect x="6.6" y="93.6" width="84.8" height="23.8" rx="5.4" fill="#EBEDF5" fill-opacity="0.6" stroke="#282C33" stroke-width="1.2"/>
<rect x="31" y="102" width="48" height="7" rx="3.5" fill="#C4CADD"/>
<rect x="14" y="100" width="11" height="11" rx="3" fill="#0066FF"/>
<path fill-rule="evenodd" clip-rule="evenodd" d="M13.8065 64.0729C14.5878 62.6899 15.9286 61.7574 17.822 61.25C19.4596 60.8112 20.9062 60.8877 22.1753 61.5302C23.4377 62.1473 24.277 63.2326 24.6864 64.7606C25.0208 66.0085 24.9679 67.1418 24.5466 68.1281C24.3914 68.47 23.8523 69.3241 22.9295 70.6905C22.5525 71.2282 22.3171 71.7826 22.2097 72.3027C22.0647 72.8875 22.0869 73.482 22.2506 74.0932L22.3667 74.5262L19.6288 75.2598L19.5128 74.8268C19.2603 73.8846 19.1955 73.0285 19.3763 72.2704C19.5178 71.4682 20.2104 70.1635 21.4215 68.3377L21.7268 67.7373C22.0305 67.0281 22.1226 66.3484 21.9451 65.6862C21.7063 64.7949 21.2662 64.1758 20.6435 63.7968C19.9953 63.4245 19.185 63.3687 18.2639 63.6155C17.1125 63.924 16.3636 64.5068 16.0498 65.3825C15.7529 66.1171 15.7547 67.0447 16.0549 68.1653L13.3682 68.8851C12.8701 67.0261 13.0185 65.4305 13.8065 64.0729ZM20.679 76.5315C20.0922 76.6888 19.744 77.2919 19.9012 77.8788L20.2118 79.0379C20.3691 79.6247 20.9722 79.9729 21.559 79.8157L22.7181 79.5051C23.305 79.3479 23.6532 78.7447 23.496 78.1579L23.1854 76.9988C23.0281 76.412 22.425 76.0637 21.8382 76.221L20.679 76.5315Z" fill="#D3D9E6"/>
<path fill-rule="evenodd" clip-rule="evenodd" d="M27.0659 38.0618C28.434 37.2546 30.0614 37.1175 31.9548 37.6248C33.5924 38.0636 34.807 38.8531 35.5848 40.0441C36.3695 41.2097 36.5537 42.5693 36.1443 44.0973C35.8099 45.3452 35.1975 46.3002 34.3394 46.9437C34.0341 47.1622 33.1402 47.6323 31.6578 48.3542C31.0625 48.6314 30.5814 48.9939 30.2283 49.3906C29.8104 49.8245 29.5323 50.3505 29.3685 50.9617L29.2525 51.3946L26.5147 50.661L26.6307 50.2281C26.8832 49.2858 27.255 48.512 27.7907 47.9458C28.3144 47.3219 29.5665 46.5383 31.5282 45.5627L32.0929 45.1954C32.7104 44.733 33.13 44.1904 33.3075 43.5282C33.5463 42.6369 33.4747 41.8807 33.125 41.2411C32.7497 40.5947 32.0759 40.1412 31.1548 39.8943C30.0033 39.5858 29.0634 39.7161 28.3538 40.3175C27.7294 40.8053 27.2671 41.6095 26.9669 42.73L24.2802 42.0101C24.7783 40.1511 25.7046 38.8434 27.0659 38.0618ZM26.7883 52.2875C26.2015 52.1303 25.5984 52.4785 25.4411 53.0653L25.1305 54.2244C24.9733 54.8113 25.3215 55.4144 25.9084 55.5717L27.0675 55.8822C27.6543 56.0395 28.2575 55.6912 28.4147 55.1044L28.7253 53.9453C28.8825 53.3585 28.5343 52.7553 27.9475 52.5981L26.7883 52.2875Z" fill="#D3D9E6"/>
<path d="M168.866 36.4915C171.2 32.6308 176.8 32.6308 179.134 36.4915L194.495 61.8955C196.913 65.8943 194.033 71 189.361 71H158.639C153.967 71 151.087 65.8942 153.505 61.8955L168.866 36.4915Z" fill="#0066FF"/>
<path fill-rule="evenodd" clip-rule="evenodd" d="M172.401 43C171.77 43 171.268 43.5301 171.302 44.1604L171.791 53.0488L172.721 57.7451C172.823 58.2602 173.275 58.6315 173.8 58.6315H174.202C174.727 58.6315 175.179 58.2602 175.281 57.7451L176.211 53.0488L176.699 44.1604C176.734 43.5301 176.232 43 175.601 43H172.401ZM172.798 60.1025C172.191 60.1025 171.698 60.595 171.698 61.2025V63.6C171.698 64.2075 172.191 64.7 172.798 64.7H175.202C175.81 64.7 176.302 64.2075 176.302 63.6V61.2025C176.302 60.595 175.81 60.1025 175.202 60.1025H172.798Z" fill="url(#paint6_linear_2539_132191)"/>
<defs>
<linearGradient id="paint0_linear_2539_132191" x1="37" y1="50" x2="183" y2="50" gradientUnits="userSpaceOnUse">
<stop stop-color="#CFD4E6"/>
<stop offset="1" stop-color="#DBE0F0"/>
</linearGradient>
<linearGradient id="paint1_linear_2539_132191" x1="37" y1="50" x2="183" y2="50" gradientUnits="userSpaceOnUse">
<stop stop-color="#B1B5C4"/>
<stop offset="1" stop-color="#E4E9F3"/>
</linearGradient>
<linearGradient id="paint2_linear_2539_132191" x1="24.816" y1="109.5" x2="99.3726" y2="122.2" gradientUnits="userSpaceOnUse">
<stop stop-color="#BDC3D7"/>
<stop offset="1" stop-color="#CFD4E6"/>
</linearGradient>
<linearGradient id="paint3_linear_2539_132191" x1="142.861" y1="69.5932" x2="170.752" y2="64.2374" gradientUnits="userSpaceOnUse">
<stop stop-color="#B6BDD2"/>
<stop offset="1" stop-color="#D7DDEC"/>
</linearGradient>
<linearGradient id="paint4_linear_2539_132191" x1="50" y1="103.387" x2="102.53" y2="103.387" gradientUnits="userSpaceOnUse">
<stop stop-color="#DFE3F0"/>
<stop offset="1" stop-color="white" stop-opacity="0.5"/>
</linearGradient>
<linearGradient id="paint5_linear_2539_132191" x1="110" y1="103.387" x2="171.8" y2="103.387" gradientUnits="userSpaceOnUse">
<stop stop-color="#DFE3F0"/>
<stop offset="1" stop-color="white" stop-opacity="0.5"/>
</linearGradient>
<linearGradient id="paint6_linear_2539_132191" x1="172.946" y1="46.4983" x2="182.038" y2="49.815" gradientUnits="userSpaceOnUse">
<stop offset="0.0198017" stop-color="white"/>
<stop offset="1" stop-color="white" stop-opacity="0.55"/>
</linearGradient>
</defs>
</svg>

<svg width="220" height="160" viewBox="0 0 220 160" fill="none" xmlns="http://www.w3.org/2000/svg"><rect x="37" y="50" width="146" height="94" rx="12" fill="url(#paint0_linear_2539_132191)"/><mask id="mask0_2539_132191" style="mask-type:alpha" maskUnits="userSpaceOnUse" x="37" y="50" width="146" height="94"><rect x="37" y="50" width="146" height="94" rx="12" fill="url(#paint1_linear_2539_132191)"/></mask><g mask="url(#mask0_2539_132191)"><rect x="1" y="100" width="99" height="26" rx="6" fill="url(#paint2_linear_2539_132191)"/><path opacity=".8" d="M166.497 28.242c3.434-5.602 11.572-5.602 15.006 0l22.285 36.36c3.594 5.863-.626 13.398-7.503 13.398h-44.57c-6.877 0-11.097-7.535-7.503-13.398l22.285-36.36z" fill="url(#paint3_linear_2539_132191)"/><path opacity=".6" fill="url(#paint4_linear_2539_132191)" d="M50 82H101V116H50z"/><path opacity=".6" fill-rule="evenodd" clip-rule="evenodd" d="M170 82h-60v4h60v-4zm0 10h-60v4h60v-4zm-60 10h60v4h-60v-4zm37 10h-37v4h37v-4z" fill="url(#paint5_linear_2539_132191)"/></g><path stroke="#fff" d="M37 65.5 180 65.5"/><circle cx="47.7" cy="57.7" r="1.7" fill="#757B94"/><circle cx="54.501" cy="57.7" r="1.7" fill="#757B94"/><circle cx="61.3" cy="57.7" r="1.7" fill="#757B94"/><rect x="50" y="73" width="32" height="4" rx="2" fill="#06F"/><rect x="6.6" y="93.6" width="84.8" height="23.8" rx="5.4" fill="#EBEDF5" fill-opacity=".6" stroke="#282C33" stroke-width="1.2"/><rect x="31" y="102" width="48" height="7" rx="3.5" fill="#C4CADD"/><rect x="14" y="100" width="11" height="11" rx="3" fill="#06F"/><path fill-rule="evenodd" clip-rule="evenodd" d="M13.806 64.073c.782-1.383 2.123-2.316 4.016-2.823 1.638-.439 3.084-.362 4.353.28 1.263.617 2.102 1.703 2.511 3.23.335 1.248.282 2.382-.14 3.368-.155.342-.694 1.196-1.616 2.563a4.38 4.38 0 0 0-.72 1.612c-.145.585-.123 1.179.04 1.79l.117.433-2.738.734-.116-.433c-.253-.942-.318-1.799-.137-2.557.142-.802.834-2.106 2.046-3.932l.305-.6c.303-.71.396-1.39.218-2.052-.239-.891-.679-1.51-1.302-1.89-.648-.371-1.458-.427-2.38-.18-1.15.308-1.9.89-2.213 1.766-.297.735-.295 1.663.005 2.783l-2.687.72c-.498-1.859-.35-3.455.438-4.812zm6.873 12.459a1.1 1.1 0 0 0-.778 1.347l.31 1.159a1.1 1.1 0 0 0 1.348.778l1.16-.31a1.1 1.1 0 0 0 .777-1.348l-.31-1.16a1.1 1.1 0 0 0-1.348-.777l-1.159.31zM27.066 38.062c1.368-.807 2.995-.944 4.889-.437 1.637.439 2.852 1.228 3.63 2.42.785 1.165.969 2.524.56 4.052-.335 1.248-.948 2.203-1.806 2.847-.305.218-1.199.688-2.681 1.41a4.382 4.382 0 0 0-1.43 1.037c-.418.434-.696.96-.86 1.57l-.115.434-2.738-.734.116-.433c.252-.942.624-1.716 1.16-2.282.523-.624 1.776-1.408 3.737-2.383l.565-.368c.617-.462 1.037-1.005 1.214-1.667.24-.891.168-1.647-.182-2.287-.375-.646-1.05-1.1-1.97-1.347-1.152-.308-2.092-.178-2.801.424-.625.487-1.087 1.291-1.387 2.412l-2.687-.72c.498-1.859 1.425-3.167 2.786-3.948zm-.278 14.226a1.1 1.1 0 0 0-1.347.777l-.31 1.16a1.1 1.1 0 0 0 .777 1.347l1.16.31a1.1 1.1 0 0 0 1.347-.778l.31-1.159a1.1 1.1 0 0 0-.777-1.347l-1.16-.31z" fill="#D3D9E6"/><path d="M168.866 36.492c2.334-3.861 7.934-3.861 10.268 0l15.361 25.404c2.418 3.998-.462 9.104-5.134 9.104h-30.722c-4.672 0-7.552-5.106-5.134-9.105l15.361-25.404z" fill="#06F"/><path fill-rule="evenodd" clip-rule="evenodd" d="M172.401 43c-.631 0-1.133.53-1.099 1.16l.489 8.889.93 4.696a1.1 1.1 0 0 0 1.079.887h.402a1.1 1.1 0 0 0 1.079-.887l.93-4.696.488-8.889a1.1 1.1 0 0 0-1.098-1.16h-3.2zm.397 17.102a1.1 1.1 0 0 0-1.1 1.1V63.6a1.1 1.1 0 0 0 1.1 1.1h2.404a1.1 1.1 0 0 0 1.1-1.1v-2.398a1.1 1.1 0 0 0-1.1-1.1h-2.404z" fill="url(#paint6_linear_2539_132191)"/><defs><linearGradient id="paint0_linear_2539_132191" x1="37" y1="50" x2="183" y2="50" gradientUnits="userSpaceOnUse"><stop stop-color="#CFD4E6"/><stop offset="1" stop-color="#DBE0F0"/></linearGradient><linearGradient id="paint1_linear_2539_132191" x1="37" y1="50" x2="183" y2="50" gradientUnits="userSpaceOnUse"><stop stop-color="#B1B5C4"/><stop offset="1" stop-color="#E4E9F3"/></linearGradient><linearGradient id="paint2_linear_2539_132191" x1="24.816" y1="109.5" x2="99.373" y2="122.2" gradientUnits="userSpaceOnUse"><stop stop-color="#BDC3D7"/><stop offset="1" stop-color="#CFD4E6"/></linearGradient><linearGradient id="paint3_linear_2539_132191" x1="142.861" y1="69.593" x2="170.752" y2="64.237" gradientUnits="userSpaceOnUse"><stop stop-color="#B6BDD2"/><stop offset="1" stop-color="#D7DDEC"/></linearGradient><linearGradient id="paint4_linear_2539_132191" x1="50" y1="103.387" x2="102.53" y2="103.387" gradientUnits="userSpaceOnUse"><stop stop-color="#DFE3F0"/><stop offset="1" stop-color="#fff" stop-opacity=".5"/></linearGradient><linearGradient id="paint5_linear_2539_132191" x1="110" y1="103.387" x2="171.8" y2="103.387" gradientUnits="userSpaceOnUse"><stop stop-color="#DFE3F0"/><stop offset="1" stop-color="#fff" stop-opacity=".5"/></linearGradient><linearGradient id="paint6_linear_2539_132191" x1="172.946" y1="46.498" x2="182.038" y2="49.815" gradientUnits="userSpaceOnUse"><stop offset=".02" stop-color="#fff"/><stop offset="1" stop-color="#fff" stop-opacity=".55"/></linearGradient></defs></svg>
